X:157
T: Lady Harriott Hope
N: O'Farrell's Pocket Companion v.2 (Sky ed. p.80)
N: "Scotch"
D: O'Sullivan Meets O'Farrell, track 2a
M: C
L: 1/8
R: reel
Q: 350
K: D
DFAd A2 GF|d2 fe/d/ eEEF|DFAd A2 GF|GEAG FD D2 :|
dAde de/f/ ed|cAeA fAeA|dAde de/f/ ed|Adce dd d2|
dAde de/f/ ed|edef gfef|dBAG FAdB|AFGE D2 D2 ||
